!!!id: 18xx:2856
!!!COM: Moniuszko, Stanisław
!!!OTL: Bartek i cietrzew
!!!PDT:
!!!SMS-siglum: PL-Wtm
!!!SMS-shelfmark: R 1229/5/M
!!!NIFC-rismID: 1001100459
!!!URL-scan: http://repozytorium.nifc.pl/skany/pl-wtm-nut--r1229m
!!!ONB-nifc: UWAGA: obsada: Coro S, Coro A, Coro T, Coro B, pf
!!!SMS-variant:
!!!SMS-altvar:
!!!OMD: Allegro Scherzando.
**kern	**kern	**dynam	**kern	**text	**kern	**text	**text	**dynam
*part3	*part3	*part3	*part2	*part2	*part1	*part1	*part1	*part1
*staff4	*staff3	*	*staff2	*staff2	*staff1	*staff1	*staff1	*
*	*I"[Fortepian]	*	*I" Tero / Bas	*	*I"Sapro / Alt	*	*	*
*>[A,A,A]	*>[A,A,A]	*	*>[A,A,A]	*	*>[A,A,A]	*	*	*
*>A	*>A	*	*>A	*	*>A	*	*	*
*clefF4	*clefG2	*	*clefF4	*	*clefG2	*	*	*
*k[f#c#g#d#]	*k[f#c#g#d#]	*	*k[f#c#g#d#]	*	*k[f#c#g#d#]	*	*	*
*M2/4	*M2/4	*	*M2/4	*	*M2/4	*	*	*
*all\middle or right	*all\middle or right	*	*all\middle or right	*	*all\middle or right	*	*	*
=1!|:	=1!|:	=1!|:	=1!|:	=1!|:	=1!|:	=1!|:	=1!|:	=1!|:
*	*^	*	*	*	*^	*	*	*
!	!	!	!	!	!	!LO:TX:t=P:problem:tekst 1. zwrotki zapisany nad górnym systemem	!	!	!	!
!	!	!	!	!	!	!	!	!	!	!LO:DY:b
8E\L 8B	8g#/L	8e\L	p	8E\ 8B	3) Wie-	8g#/	8e\	1) W le-	2) Je-	p
8E\ 8B	(16g#/L	8e\	.	8E\ 8B	-luż	16g#/LL	8e\	-sie	-go	.
.	16a/J	.	.	.	.	16a/JJ	.	.	.	.
8E\ 8B	8g#/)	8e\	.	8E\ 8B	ma-	8g#/	8e\	cie-	cha-	.
8E\J 8A	8f#/J	8d#\J	.	8E\ 8A	-my	8f#/	8d#\	-trzew	-ta	.
=2	=2	=2	=2	=2	=2	=2	=2	=2	=2	=2
8E\L 8G#	8g#/L	8e\L	.	8E\ 8G#	tych	8g#/	8e\	gdzieś	już	.
8E\ 8B	(16g#/L	8e\	.	8E\ 8B	cie-	16g#/LL	8e\	to-	bez	.
.	16a/J	.	.	.	.	16a/JJ	.	.	.	.
8E\ 8F#	8.b/	8d#\	.	8.E\ 8.F#	-trze-	8.b/	8.d#\	-ku-	strze-	.
8E\J [8B	.	8d#\J	.	.	.	.	.	.	.	.
.	16a/Jk	.	.	16E\ 16B	-wi,	16a/	16d#\	-je,	-chy,	.
=3	=3	=3	=3	=3	=3	=3	=3	=3	=3	=3
8E\L 8B]	8g#/)	8e\	.	8E\ 8B	i-	8g#/	8e\	w karcz-	Bo-	.
8E\ 8B	(16g#/LL	8e\L	.	8E\ 8B	-lu	16g#/LL	8e\	-mie	-ki	.
.	16a/J	.	.	.	.	16a/JJ	.	.	.	.
8E\ 8B	8g#/)	8e\	.	8E\ 8B	chłop-	8g#/	8e\	Bar-	wo-	.
8E\J 8A	8f#/J	8d#\J	.	8E\ 8A	-ków?	8f#/	8d#\	-tek	-łów	.
=4	=4	=4	=4	=4	=4	=4	=4	=4	=4	=4
8E\L 8G#	8g#/L	8e\L	.	8E\ 8G#	któż	8g#/	8e\	ba-	jak-	.
8E\ 8B	16g#/L	8e\	.	8E\ 8B	to	16g#/LL	8e\	-rasz-	-by	.
.	16a/J	.	.	.	.	16a/JJ	.	.	.	.
8E\ 8F#	8.b/	8d#\	.	8.E\ 8.F#	nie	8.b/	8.d#\	-ku-	mie-	.
8E\J 8B	.	8d#\J	.	.	.	.	.	.	.	.
.	16a/Jk	.	.	16E\ 16B	wie?	16f#/	16d#\	-je,	-chy,	.
=5	=5	=5	=5	=5	=5	=5	=5	=5	=5	=5
8E\L 8B	8g#/L	8e\L	.	8E\ 8B	ach	8g#/	8e\	strze-	a	.
8E\ 8B	(16g#/L	8e\	.	8E\ 8B	pra-	16g#/LL	8e\	-lec	ko-	.
.	16a#X/J	.	.	.	.	16a#X/JJ	.	.	.	.
8E\ 8B	8g#/)	8e\	.	8E\ 8B	-wdzi-	8g#/	8e\	cie-	-ni-	.
8D#\J 8B	8f#/J	8f#\J	.	8D#\ 8B	-wie	8f#/	8f#\	-trze-	-ki	.
=6	=6	=6	=6	=6	=6	=6	=6	=6	=6	=6
!!LO:LB:g=original
8BB\L 8B	8g#/L	8e\L	.	8C#\ 8B	Bóg	8g#/	8e\	-wia	so-	.
(8F#\ 8c#	(8a#X/	8e\	.	8F#\ 8c#	nas	8a#X/	8e\	za-	-ko-	.
8BB\) 8B	8b/)	8d#\	.	8.BB\ 8.B	ka-	8.b/	8.d#\	-bi-	-li-	.
8B\J	8f#/J	8d#\J	.	.	.	.	.	.	.	.
.	.	.	.	16BB\ 16B	-rze,	16f#/	16d#\	-ja,	-ki	.
=7	=7	=7	=7	=7	=7	=7	=7	=7	=7	=7
!	!	!	!	!	!	!LO:SIC:v:l:s=szyn-:1	!	!	!	!
8E\L 8B	8g#/L	8e\L	.	8E\ 8B	Gi-	8g#/	8e\	szy-	Ta-	.
8E\ 8B	(16g#/L	8e\	.	8E\ 8B	-niem	16g#/LL	8e\	-kasz	-kie	.
.	16a#X/J	.	.	.	.	16a#X/JJ	.	.	.	.
8E\ 8B	8g#/)	8e\	.	8E\ 8B	wszy-	8g#/	8e\	gu-	chu-	.
8D#\J 8B	8f#/J	8f#\J	.	8D#\ 8B	-scy	8f#/	8f#\	-bi	-de,	.
=8	=8	=8	=8	=8	=8	=8	=8	=8	=8	=8
8C#\L 8B	8e/L 8g#	4ryy	.	8C#\ 8B	przez	8g#/	8e\	Bar-	jak	.
8F#\J 8A#X	8e/J 8f#	.	.	8F#\ 8c#	szyn-	8a#X/	8e\	-tło-	wo-	.
4BB\ 4B	(8f#^/L	4d#\	.	16B\ 16d#	-ka-	16b/	16d#\	-mie-	-li-	.
.	.	.	.	16BB\ 16d#	-rze!	16b/	16f#\	-ja	-ki,	.
.	8b/J)	.	.	8r	.	8r	8ryy	.	.	.
*	*v	*v	*	*	*	*	*	*	*	*
=9	=9	=9	=9	=9	=9	=9	=9	=9	=9
*	*	*	*^	*	*	*	*	*	*
!	!LO:TX:t=P:problem:łuki	!	!	!	!	!	!	!	!	!
!	!LO:TX:b:t=piu lento	!	!	!	!	!	!	!	!	!
!	!	!	!	!	!	!	!	!	!	!LO:DY:b
(4C#/	(4g#^\ (4cc# (4ee	f	4c#^/	4c#\	[Oj	4cc#^/	4cc#\	Oj	[Oj	f
8F#\L)	8f#/L) 8b) 8dd#)	.	8B/	8B\	Bar-	8b/	8b\	Bar-	Bar-	.
8FF#\J	8f#/J 8a#X 8cc#	.	8A#X/	8A#\	-tek,	8a#X/	8a#\	-tek,	-tek,	.
=10	=10	=10	=10	=10	=10	=10	=10	=10	=10	=10
*	*^	*	*	*	*	*	*	*	*	*
8BB/	16dd#/LL	8f#\	.	8B/	8B\	oj	8b/	8b\	oj	oj	.
.	16cc#/JJ	.	.	.	.	.	.	.	.	.	.
4B;\ 4d#	4f#;/ 4b	8ryy	.	4F#/	4F#;\	cie-	4f#;/	4f#\	cie-	cie-	.
.	.	4ryy	.	.	.	.	.	.	.	.	.
8r	8b\	.	.	8B/	8B\	-trzew,	8b/	8b\	-trzew,	-trzew,	.
*	*v	*v	*	*	*	*	*	*	*	*	*
=11	=11	=11	=11	=11	=11	=11	=11	=11	=11	=11
!	!LO:TX:t=P:problem:łuki	!	!	!	!	!	!	!	!	!
!!LO:LB:g=original
!	!	!	!	!	!	!	!	!	!	!LO:DY:b
(4FF#/	(4c#/ (4f# (4a	p	4c#/	4F#\	Oj	4cc#^/	4a\	Oj	Oj	p
8BB/L)	8B/L) 8e) 8g#)	.	8e/	8B\	Bar-	8g#/ 8b	4ryy	Bar-	Bar-	.
8BBB/J	8B/J 8d# 8f#	.	8B/	8BB\	-tek	8d#/ 8an	.	-tek	-tek	.
=12	=12	=12	=12	=12	=12	=12	=12	=12	=12	=12
8EE/	8B/ 8e 8g#	.	8B/	8E\	oj	16g#/LL	8e\	oj	oj	.
.	.	.	.	.	.	16f#/JJ	.	.	.	.
4.E;\ 4.G#	4.B;/ 4.e	.	4G#/	4E;\	cie-	4B;/ 4e	8ryy	cie-	cie-	.
.	.	.	.	.	.	.	4ryy	.	.	.
.	.	.	16G#/	16E\	-trzew.]	16B/ 16e	.	-trzew.	-trzew.]	.
.	.	.	16r;	16ryy	.	16r;	.	.	.	.
*	*	*	*v	*v	*	*	*	*	*	*
*	*	*	*	*	*v	*v	*	*	*
=:|!	=:|!	=:|!	=:|!	=:|!	=:|!	=:|!	=:|!	=:|!
*-	*-	*-	*-	*-	*-	*-	*-	*-
!!!system-decoration: {(s1,s2)}{(s3,s4)}
!!!ENC: Kamil Watkowski
!!!END: 2021-08-10
